images/ic-biz-transform.svg

<svg height="22" viewBox="0 0 20 22" width="20" xmlns="http://www.w3.org/2000/svg"><path d="m6 3h2l-3-3-3 3h2v2h-4v2h4v8c0 1.1.9 2 2 2h8v2h-2l3 3 3-3h-2v-2h4v-2h-14zm10 10v-6c0-1.1-.9-2-2-2h-6v2h6v6z" fill="#3e4241"/></svg>

<?xml version="1.0" encoding="UTF-8"?>
<svg width="20px" height="22px" viewBox="0 0 20 22" version="1.1" xmlns="http://www.w3.org/2000/svg" xmlns:xlink="http://www.w3.org/1999/xlink">
    <!-- Generator: Sketch 54.1 (76490) - https://sketchapp.com -->
    <title>ic-biz-transform</title>
    <desc>Created with Sketch.</desc>
    <g id="Page-1" stroke="none" stroke-width="1" fill="none" fill-rule="evenodd">
        <g id="ic-biz-transform" fill="#3E4241" fill-rule="nonzero">
            <path d="M6,3 L8,3 L5,0 L2,3 L4,3 L4,5 L0,5 L0,7 L4,7 L4,15 C4,16.1 4.9,17 6,17 L14,17 L14,19 L12,19 L15,22 L18,19 L16,19 L16,17 L20,17 L20,15 L6,15 L6,3 Z M16,13 L16,7 C16,5.9 15.1,5 14,5 L8,5 L8,7 L14,7 L14,13 L16,13 Z" id="Shape"></path>
        </g>
    </g>
</svg>
